src/icons/copy.svg

<svg fill="none" height="18" viewBox="0 0 18 18" width="18" xmlns="http://www.w3.org/2000/svg"><g fill="#9d4dfa"><path clip-rule="evenodd" d="m14.8708 1h-6.70895c-1.1744 0-2.12991.95552-2.12991 2.12991v2.90203h-2.90203c-1.17439 0-2.12991.95551-2.12991 2.12915v6.70901c0 1.1751.95552 2.1299 2.12991 2.1299h6.709c1.17439 0 2.12989-.9555 2.12989-2.1299v-2.902h2.9013c1.1744 0 2.1299-.9556 2.1299-2.12919v-6.70824c.0008-1.17515-.9548-2.13067-2.1292-2.13067zm-3.8077 13.8701c0 .6755-.5494 1.225-1.22419 1.225h-6.709c-.6755 0-1.22421-.5503-1.22421-1.225v-6.70901c0-.6755.54946-1.22421 1.22421-1.22421h2.90127v2.90203c0 1.17439.95552 2.12919 2.12991 2.12919h2.90201zm3.8077-3.807c.6748 0 1.2243-.5487 1.2243-1.22419v-6.70824c0-.67475-.5488-1.22497-1.2243-1.22497h-6.70895c-.67475 0-1.22421.54946-1.22421 1.22497v6.70824c0 .67479.5487 1.22419 1.22421 1.22419z" fill-rule="evenodd"/><path d="m6.03194 6.03194v.5h.5v-.5zm5.93686 5.93616v-.5h-.5v.5zm5.0312-8.83743-.5-.00032v.00032zm-10.96882 3.80621h.5v-.5h-.5zm5.03192 5.03122h.5v-.5h-.5zm-2.90125-10.4681h6.70895v-1h-6.70895zm-1.62991 1.62991c0-.89825.73165-1.62991 1.62991-1.62991v-1c-1.45054 0-2.62991 1.17937-2.62991 2.62991zm0 2.90203v-2.90203h-1v2.90203zm-3.40203.5h2.90203v-1h-2.90203zm-1.62991 1.62915c0-.89738.73154-1.62915 1.62991-1.62915v-1c-1.45042 0-2.62991 1.17925-2.62991 2.62915zm0 6.70901v-6.70901h-1v6.70901zm1.62991 1.6299c-.89837 0-1.62991-.731-1.62991-1.6299h-1c0 1.4514 1.17949 2.6299 2.62991 2.6299zm6.709 0h-6.709v1h6.709zm1.62989-1.6299c0 .8982-.7316 1.6299-1.62989 1.6299v1c1.45049 0 2.62989-1.1794 2.62989-2.6299zm0-2.902v2.902h1v-2.902zm3.4013-.5h-2.9013v1h2.9013zm1.6299-1.62919c0 .89739-.7315 1.62919-1.6299 1.62919v1c1.4504 0 2.6299-1.1793 2.6299-2.62919zm0-6.70824v6.70824h1v-6.70824zm-1.6292-1.63067c.8982 0 1.6298.73154 1.6292 1.63035l1 .00064c.0009-1.45149-1.1786-2.63099-2.6292-2.63099zm-5.03189 15.0951c.95109 0 1.72419-.7736 1.72419-1.725h-1c0 .3995-.3258.725-.72419.725zm-6.709 0h6.709v-1h-6.709zm-1.72421-1.725c0 .9503.77196 1.725 1.72421 1.725v-1c-.39876 0-.72421-.3258-.72421-.725zm0-6.70901v6.70901h1v-6.70901zm1.72421-1.72421c-.95069 0-1.72421.77237-1.72421 1.72421h1c0-.39916.3254-.72421.72421-.72421zm2.90127 0h-2.90127v1h2.90127zm.5 3.40203v-2.90203h-1v2.90203zm1.62991 1.62919c-.89848 0-1.62991-.7312-1.62991-1.62919h-1c0 1.45079 1.17961 2.62919 2.62991 2.62919zm2.90201 0h-2.90201v1h2.90201zm.5 3.402v-2.902h-1v2.902zm4.032-5.03119c0 .39919-.3255.72419-.7243.72419v1c.9507 0 1.7243-.7723 1.7243-1.72419zm0-6.70824v6.70824h1v-6.70824zm-.7243-.72497c.3988 0 .7243.32576.7243.72497h1c0-.95029-.772-1.72497-1.7243-1.72497zm-6.70895 0h6.70895v-1h-6.70895zm-.72421.72497c0-.39957.3258-.72497.72421-.72497v-1c-.95109 0-1.72421.77352-1.72421 1.72497zm0 6.70824v-6.70824h-1v6.70824zm.72421.72419c-.39916 0-.72421-.3254-.72421-.72419h-1c0 .95069.77236 1.72419 1.72421 1.72419zm6.70895 0h-6.70895v1h6.70895z"/></g></svg>

<svg width="18" height="18" viewBox="0 0 18 18" fill="none" xmlns="http://www.w3.org/2000/svg">
<path fill-rule="evenodd" clip-rule="evenodd" d="M14.8708 1H8.16185C6.98745 1 6.03194 1.95552 6.03194 3.12991V6.03194H3.12991C1.95552 6.03194 1 6.98745 1 8.16109V14.8701C1 16.0452 1.95552 17 3.12991 17H9.83891C11.0133 17 11.9688 16.0445 11.9688 14.8701V11.9681H14.8701C16.0445 11.9681 17 11.0125 17 9.83891V3.13067C17.0008 1.95552 16.0452 1 14.8708 1ZM11.0631 14.8701C11.0631 15.5456 10.5137 16.0951 9.83891 16.0951H3.12991C2.45441 16.0951 1.9057 15.5448 1.9057 14.8701V8.16109C1.9057 7.48559 2.45516 6.93688 3.12991 6.93688H6.03118V9.83891C6.03118 11.0133 6.9867 11.9681 8.16109 11.9681H11.0631V14.8701ZM14.8708 11.0631C15.5456 11.0631 16.0951 10.5144 16.0951 9.83891V3.13067C16.0951 2.45592 15.5463 1.9057 14.8708 1.9057H8.16185C7.4871 1.9057 6.93764 2.45516 6.93764 3.13067V9.83891C6.93764 10.5137 7.48634 11.0631 8.16185 11.0631H14.8708Z" fill="#9D4DFA"/>
<path d="M6.03194 6.03194V6.53194H6.53194V6.03194H6.03194ZM11.9688 11.9681V11.4681H11.4688V11.9681H11.9688ZM17 3.13067L16.5 3.13035V3.13067H17ZM6.03118 6.93688H6.53118V6.43688H6.03118V6.93688ZM11.0631 11.9681H11.5631V11.4681H11.0631V11.9681ZM8.16185 1.5H14.8708V0.5H8.16185V1.5ZM6.53194 3.12991C6.53194 2.23166 7.26359 1.5 8.16185 1.5V0.5C6.71131 0.5 5.53194 1.67937 5.53194 3.12991H6.53194ZM6.53194 6.03194V3.12991H5.53194V6.03194H6.53194ZM3.12991 6.53194H6.03194V5.53194H3.12991V6.53194ZM1.5 8.16109C1.5 7.26371 2.23154 6.53194 3.12991 6.53194V5.53194C1.67949 5.53194 0.5 6.71119 0.5 8.16109H1.5ZM1.5 14.8701V8.16109H0.5V14.8701H1.5ZM3.12991 16.5C2.23154 16.5 1.5 15.769 1.5 14.8701H0.5C0.5 16.3215 1.67949 17.5 3.12991 17.5V16.5ZM9.83891 16.5H3.12991V17.5H9.83891V16.5ZM11.4688 14.8701C11.4688 15.7683 10.7372 16.5 9.83891 16.5V17.5C11.2894 17.5 12.4688 16.3206 12.4688 14.8701H11.4688ZM11.4688 11.9681V14.8701H12.4688V11.9681H11.4688ZM14.8701 11.4681H11.9688V12.4681H14.8701V11.4681ZM16.5 9.83891C16.5 10.7363 15.7685 11.4681 14.8701 11.4681V12.4681C16.3205 12.4681 17.5 11.2888 17.5 9.83891H16.5ZM16.5 3.13067V9.83891H17.5V3.13067H16.5ZM14.8708 1.5C15.769 1.5 16.5006 2.23154 16.5 3.13035L17.5 3.13099C17.5009 1.6795 16.3214 0.5 14.8708 0.5V1.5ZM9.83891 16.5951C10.79 16.5951 11.5631 15.8215 11.5631 14.8701H10.5631C10.5631 15.2696 10.2373 15.5951 9.83891 15.5951V16.5951ZM3.12991 16.5951H9.83891V15.5951H3.12991V16.5951ZM1.4057 14.8701C1.4057 15.8204 2.17766 16.5951 3.12991 16.5951V15.5951C2.73115 15.5951 2.4057 15.2693 2.4057 14.8701H1.4057ZM1.4057 8.16109V14.8701H2.4057V8.16109H1.4057ZM3.12991 6.43688C2.17922 6.43688 1.4057 7.20925 1.4057 8.16109H2.4057C2.4057 7.76193 2.7311 7.43688 3.12991 7.43688V6.43688ZM6.03118 6.43688H3.12991V7.43688H6.03118V6.43688ZM6.53118 9.83891V6.93688H5.53118V9.83891H6.53118ZM8.16109 11.4681C7.26261 11.4681 6.53118 10.7369 6.53118 9.83891H5.53118C5.53118 11.2897 6.71079 12.4681 8.16109 12.4681V11.4681ZM11.0631 11.4681H8.16109V12.4681H11.0631V11.4681ZM11.5631 14.8701V11.9681H10.5631V14.8701H11.5631ZM15.5951 9.83891C15.5951 10.2381 15.2696 10.5631 14.8708 10.5631V11.5631C15.8215 11.5631 16.5951 10.7908 16.5951 9.83891H15.5951ZM15.5951 3.13067V9.83891H16.5951V3.13067H15.5951ZM14.8708 2.4057C15.2696 2.4057 15.5951 2.73146 15.5951 3.13067H16.5951C16.5951 2.18038 15.8231 1.4057 14.8708 1.4057V2.4057ZM8.16185 2.4057H14.8708V1.4057H8.16185V2.4057ZM7.43764 3.13067C7.43764 2.7311 7.76344 2.4057 8.16185 2.4057V1.4057C7.21076 1.4057 6.43764 2.17922 6.43764 3.13067H7.43764ZM7.43764 9.83891V3.13067H6.43764V9.83891H7.43764ZM8.16185 10.5631C7.76269 10.5631 7.43764 10.2377 7.43764 9.83891H6.43764C6.43764 10.7896 7.21 11.5631 8.16185 11.5631V10.5631ZM14.8708 10.5631H8.16185V11.5631H14.8708V10.5631Z" fill="#9D4DFA"/>
</svg>
